www/assets/icons/9k_plus.svg

<svg xmlns="http://www.w3.org/2000/svg" width="24" height="24" viewBox="0 0 24 24" fill='currentColor'><path d="M6.5 10H8v1.5H6.5zM19 3H5c-1.1 0-2 .9-2 2v14c0 1.1.9 2 2 2h14c1.1 0 2-.9 2-2V5c0-1.1-.9-2-2-2M9.5 14c0 .55-.45 1-1 1H5v-1.5h3v-1H6c-.55 0-1-.45-1-1V10c0-.55.45-1 1-1h2.5c.55 0 1 .45 1 1zm6.5 1h-1.75l-1.75-2.25V15H11V9h1.5v2.25L14.25 9H16l-2.25 3zm4-2.5h-1.5V14h-1v-1.5H16v-1h1.5V10h1v1.5H20z"/></svg>

<svg width="24" height="24" viewBox="0 0 24 24" xmlns="http://www.w3.org/2000/svg" fill='currentColor'><path d="M6.5 10H8V11.5H6.5V10ZM19 3H5C3.9 3 3 3.9 3 5V19C3 20.1 3.9 21 5 21H19C20.1 21 21 20.1 21 19V5C21 3.9 20.1 3 19 3ZM9.5 14C9.5 14.55 9.05 15 8.5 15H5V13.5H8V12.5H6C5.45 12.5 5 12.05 5 11.5V10C5 9.45 5.45 9 6 9H8.5C9.05 9 9.5 9.45 9.5 10V14ZM16 15H14.25L12.5 12.75V15H11V9H12.5V11.25L14.25 9H16L13.75 12L16 15ZM20 12.5H18.5V14H17.5V12.5H16V11.5H17.5V10H18.5V11.5H20V12.5Z"/></svg>
